X:1
T:Title
%%score { ( 1 3 ) | ( 2 4 ) }
L:1/8
M:4/4
K:F
V:1 treble nm="Grand Piano"
V:3 treble 
V:2 bass 
V:4 bass 
V:1
 z8[Q:1/4=108] | [CFA]2 [EFA]2 [DFA]2 [^CFA]2 | [CFA]2 [CFA]4 [CFA]2 | %3
 [FAc]2 [CFA]2 [DF]2 [^CFG]2 | [CFA]6 z2 | [CEB]2 [CFB]2 [CGB]2 [Ec]2 | [CFA]2 [A,CF]4 [CFA]2 | %7
 [=B,FA]2 [G,B,D]2 [G,B,E]2 [G,B,F]2 | G6 z2 | [CFA]2 [EFA]2 [DFA]2 [^CFA]2 | %10
 [CFA]2 [CFA]4 [CFA]2 | [FAc]2 [CFA]2 [DF]2 [DFG]2 | [^CEA]6 [CA]2 | [DG]2 [DG]2 [Fd]2 [Fd]2 | %14
 [Fc]2 [CFA]4 [CFA]2 | [=B,FA]2 [B,FG]2 [CFA]2 [DF=B]2 |[M:7/8] c-c-c- c- c3 |[M:1/4] c2 | %18
[M:4/4] d4 c4 | E4 F4 | A2 G2 ^F2 G2 | D6 z2 | E4 G4 | z2 E2 d2- [Bd]2 | %24
 [FAd]2 [Ac]2 [F_A=B]2 [ABd]2 | [FAc]2 A2 B2 =B2 | d4 c4 | E4 F4 | A2 G2 ^F2 G2 | [Fd]6 [Fd]2 | %30
 [Fd]2 [Fc]2 [fd']2 [fc']2 | [Fd]2 [Fc]2 [fd']2 [fc']2 | [DEB]2 [EB]2 [CEA]2 [EG]2 | %33
[M:3/4] [A,CF]6[K:bass] |] %34
V:2
 z4 z2 C2 | F,,2 C,2 F,2 C,2 | F,,2 C,2 F,2 C,2 | F,,2 A,,2 B,,2 B,,2 | F,,2 C,2 F,2 A2 | %5
 C,2 D,2 E,2 [C,B,]2 | F,,2 C,2 F,2 F,,2 | G,,2 F,2 E,2 D,2 | C,2 F,2 E,2 C,2 | F,,2 C,2 F,2 C,2 | %10
 F,,2 C,2 F,2 C,2 | F,,2 A,,2 B,,2 B,,2 | A,,2 ^C,E, A,2 [A,,A,]2 | %13
 [B,,B,]2 [B,,B,]2 [=B,,_A,]2 [B,,A,]2 | [C,A,]2 C,4 D,2 | G,2 G,2 G,2 G,2 |[M:7/8] z2 A,2 B,3 | %17
[M:1/4][K:treble] C2 |[M:4/4] [FA]2 z2 [FA]2 z2 | [A,C]2 z2 [A,C]2 z2 | %20
 [A,B,D]2 [G,B,D]2 [^F,B,D]2 [G,B,D]2 | [G,B,]2 z2 z4 | z2 B,2 [B,C]2 B,2 | [CE]2 C2 z2 E2 | %24
 z2 F2 z2[K:treble] F2 | F,2 F2 G2 _A2 | [FA]2 F2 [FA]2 F2 | [A,C]2 z2 [A,C]2 z2 | %28
 [A,B,D]2 [G,B,D]2 [^F,B,D]2 [G,B,D]2 | [=B,,_A,]6 [B,,A,]2 | %30
 [C,A,]2 [C,A,]2[K:treble] [CA]2 [CA]2 | [C,A,]2 [C,A,]2[K:treble] [CA]2 [CA]2 | z2 D2 z2 B,2 | %33
[M:3/4] F,2 C,2 F,,2 |] %34
V:3
 x8 | x8 | x8 | x8 | x8 | x8 | x8 | x8 | [B,E]2 [B,D]2 [B,C]2 C2 | x8 | x8 | x8 | x8 | x8 | x8 | %15
 x8 |[M:7/8] [CE]2 [_E^F]2 [=EG]3 |[M:1/4] x2 |[M:4/4] z2 A2 z2 A2 | z2 C2 z2 C2 | x8 | %21
 z2 B,B, B,2 [B,DF]2 | [B,C]2 C2 z2 C2 | B4 [EB]2 z2 | x8 | x8 | z2 A2 z2 A2 | z2 C2 z2 C2 | x8 | %29
 x8 | x8 | x8 | x8 |[M:3/4] z2 z2[K:bass] F,2 |] %34
V:4
 x8 | x8 | x8 | x8 | x8 | x8 | x8 | x8 | x8 | x8 | x8 | x8 | x8 | x8 | x8 | x8 | %16
[M:7/8] C,-C,-C,- C,- C,2- C,/ z/ |[M:1/4][K:treble] x2 |[M:4/4] D2- [DF]2 C2- [CF]2 | %19
 E,2- [E,A,]2 F,2- [F,A,]2 | x8 | D,2- [D,-G,][D,-G,] [D,G,]2 G,,2 | C,4 E,4 | G,4 C,4 | %24
 F,4 F,,4[K:treble] | x8 | D4 C4 | E,2- [E,A,]2 F,2- [F,A,]2 | x8 | x8 | x4[K:treble] x4 | %31
 x4[K:treble] x4 | C,4 C,4 |[M:3/4] x6 |] %34

